X: 39114
T: Sweet And Low
R: jig
M: 6/8
K: Cmajor
E2 E A3|G2 G c3|cBA G2 #F|A3 G3|E3 A3|G2 E A3|dBc A2 B|A3 G2|
GBA GAG|GcA G3|GBA GAG|Gc ^F G3|ccc c2 B|A3 _A3|G2 G G>A G
c6|c6||

